sourses/img/VK.svg

<svg width="24" height="24" viewBox="0 0 24 24" fill="none" xmlns="http://www.w3.org/2000/svg">
<path fill-rule="evenodd" clip-rule="evenodd" d="M12 0C5.37258 0 0 5.37258 0 12C0 18.6274 5.37258 24 12 24C18.6274 24 24 18.6274 24 12C24 5.37258 18.6274 0 12 0ZM12.9771 15.7881C12.8587 15.9128 12.6277 15.938 12.6277 15.938H11.8627C11.8627 15.938 10.1749 16.0376 8.68801 14.5185C7.06655 12.8611 5.63478 9.57277 5.63478 9.57277C5.63478 9.57277 5.55214 9.35707 5.64166 9.25321C5.74246 9.13584 6.01729 9.12847 6.01729 9.12847L7.84598 9.11679C7.84598 9.11679 8.01814 9.14444 8.14147 9.23355C8.24352 9.30729 8.30049 9.44433 8.30049 9.44433C8.30049 9.44433 8.59599 10.1781 8.98727 10.8418C9.75167 12.1378 10.1073 12.4211 10.3665 12.2822C10.7446 12.08 10.6313 10.4503 10.6313 10.4503C10.6313 10.4503 10.6382 9.85914 10.441 9.59551C10.2882 9.39148 10.0002 9.33187 9.87312 9.31528C9.76983 9.30176 9.93886 9.06701 10.158 8.96193C10.4873 8.804 11.0683 8.79478 11.755 8.80154C12.2903 8.80707 12.4443 8.83964 12.6534 8.88941C13.1387 9.00437 13.1236 9.37276 13.0909 10.1678C13.0811 10.4056 13.0697 10.6816 13.0697 11.0003C13.0697 11.0719 13.0676 11.1483 13.0654 11.2268C13.0541 11.6342 13.0411 12.1006 13.3145 12.2742C13.4547 12.3627 13.7972 12.2871 14.6543 10.859C15.0606 10.1818 15.3648 9.38595 15.3648 9.38595C15.3648 9.38595 15.4318 9.244 15.5351 9.18316C15.6409 9.12109 15.7836 9.14014 15.7836 9.14014L17.7081 9.12847C17.7081 9.12847 18.2866 9.06025 18.3799 9.31713C18.4782 9.58567 18.1639 10.2137 17.3776 11.2424C16.6317 12.2185 16.2687 12.5779 16.302 12.8958C16.3264 13.128 16.5623 13.3381 17.0151 13.7503C17.9603 14.6117 18.2136 15.0649 18.2745 15.1738C18.2796 15.1829 18.2833 15.1895 18.286 15.1938C18.7098 15.884 17.8158 15.938 17.8158 15.938L16.1061 15.9614C16.1061 15.9614 15.7392 16.0327 15.2559 15.707C15.0027 15.5365 14.7553 15.2581 14.5197 14.9929C14.1598 14.5879 13.8274 14.2138 13.5436 14.3022C13.0672 14.4509 13.0816 15.4581 13.0816 15.4581C13.0816 15.4581 13.0854 15.6738 12.9771 15.7881Z" fill="#D7A950"/>
</svg>

<svg width="24" height="24" fill="none" xmlns="http://www.w3.org/2000/svg"><path fill-rule="evenodd" clip-rule="evenodd" d="M12 0C5.373 0 0 5.373 0 12s5.373 12 12 12 12-5.373 12-12S18.627 0 12 0zm.977 15.788c-.118.125-.35.15-.35.15h-.764s-1.688.1-3.175-1.42c-1.621-1.657-3.053-4.945-3.053-4.945s-.083-.216.007-.32c.1-.117.375-.125.375-.125l1.829-.011s.172.027.295.117c.103.073.16.21.16.21s.295.734.686 1.398c.765 1.296 1.12 1.58 1.38 1.44.378-.202.264-1.832.264-1.832s.007-.59-.19-.854c-.153-.205-.44-.264-.568-.28-.103-.014.066-.249.285-.354.33-.158.91-.167 1.597-.16.535.005.69.038.898.087.486.115.47.484.438 1.279-.01.238-.021.514-.021.832 0 .072-.002.148-.005.227-.01.407-.024.874.25 1.047.14.089.482.013 1.34-1.415.406-.677.71-1.473.71-1.473s.067-.142.17-.203c.106-.062.249-.043.249-.043l1.924-.012s.579-.068.672.19c.098.268-.216.896-1.002 1.924-.746.976-1.11 1.336-1.076 1.654.024.232.26.442.713.854.945.862 1.199 1.315 1.26 1.424l.011.02c.424.69-.47.744-.47.744l-1.71.023s-.367.072-.85-.254c-.253-.17-.5-.449-.736-.714-.36-.405-.693-.78-.976-.69-.477.148-.462 1.155-.462 1.155s.003.216-.105.33z" fill="#D7A950"/></svg>
